image/icon/Mine.svg

<!--version="1.0" encoding="UTF-8"--><svg version="1.1" id="Layer_1" xmlns="http://www.w3.org/2000/svg" width="37" height="37" xml:space="preserve"><g id="PathID_96" transform="matrix(1, 0, 0, 1, 18.3, 18.4)"><path style="fill: rgb(0, 0, 0); fill-opacity: 1;" d="m10.85-12.85-3.05-3.5q-.35-.35-.75 0l-3.2 3.75q-.35.45 0 .85l2.9 3.35L.3-1.5l-7.8-8.45 5.5-5 1-.8q.4-.3-.05-.3l-3.4.6-1.95.5q-2.5.75-4.05 1.8l-.4-.4-.65-.1-.1.1-1.05 1.25q-.35.35-.05.85l.3.35Q-14-8.25-15.45-1.05l-1.15 6.6q-.1.9.15.05L-14 .65l2.5-4.7 2.05-3.45 7.2 8.8-10.4 11.2q-.35.45 0 .85l2.55 2.95q.3.4.7 0L.3 4.4l9.75 11.9q.4.4.7 0l2.55-2.95q.35-.4 0-.85L2.9 1.3 8.85-6l1.35 1.55.85.6L16.2-1.7q.55.2.35-.35l-1.85-6-.55-1-1.45-1.65.65-.75q.3-.5-.05-.85l-1.05-1.25q-.35-.45-.75 0l-.65.7m2.6-2.1 1.05 1.25q1.1 1.2.5 2.85l.35.45.95 1.7 1.85 6q.35 1.15-.25 2.05-.35.6-.95.8L15.65.1 10.45-2Q9.6-2.35 9-3.1l-.1-.1-3.6 4.4 9.15 9.9q.7.7.7 1.8 0 1.15-.65 1.8l-2.55 2.95q-.6.75-1.55.75-.95 0-1.6-.8L.3 7.25-8.15 17.6q-.6.75-1.55.8-.95 0-1.6-.75l-2.55-2.9q-.65-.7-.65-1.85 0-1.1.7-1.8l9.15-9.9-4.6-5.65-2.25 4.1-1.55 3-1.9 3.9q-.55 1.2-1.6 1.2h-.8l-.55-.65q-.5-.7-.35-1.85Q-16.8-5.65-14.4-11q-.45-1.6.55-2.7l1.05-1.25q.5-.55 1.2-.7h.1l1.2.2 1.8-.85q3.15-1.3 7.3-1.7h.2q1.4 0 1.8 1.45.25.9-.1 1.6l-.7.8-4.95 4.3L.3-4.15l4-4.3-1.65-1.95Q2-11.05 2-12.2q0-1.1.65-1.8l3.25-3.7.6-.45.95-.25q.9 0 1.55.7l1.95 2.25 1.3-.2 1.2.7"/><path style="fill: rgb(255, 255, 255); fill-opacity: 1;" d="M11.5-13.55q.4-.45.75 0l1.05 1.25q.35.35.05.85l-.65.75 1.45 1.65.55 1 1.85 6q.2.55-.35.35l-5.15-2.15-.85-.6L8.85-6 2.9 1.3l10.4 11.2q.35.45 0 .85l-2.55 2.95q-.3.4-.7 0L.3 4.4l-9.7 11.9q-.4.4-.7 0l-2.55-2.95q-.35-.4 0-.85l10.4-11.2-7.2-8.8-2.05 3.45-2.5 4.7-2.45 4.95q-.25.85-.15-.05l1.15-6.6Q-14-8.25-12.4-11.1l-.3-.35q-.3-.5.05-.85l1.05-1.25.1-.1.65.1.4.4q1.55-1.05 4.05-1.8l1.95-.5 3.4-.6q.45 0 .05.3l-1 .8-5.5 5L.3-1.5l6.45-6.9-2.9-3.35q-.35-.4 0-.85l3.2-3.75q.4-.35.75 0l3.05 3.5.65-.7"/></g></svg>

<?xml version="1.0" encoding="UTF-8"?>
<svg version="1.1" id="Layer_1" xmlns="http://www.w3.org/2000/svg" xmlns:xlink="http://www.w3.org/1999/xlink" width="37px" height="37px" xml:space="preserve">
<g id="PathID_96" transform="matrix(1, 0, 0, 1, 18.3, 18.4)">
<path style="fill:#000000;fill-opacity:1" d="M10.85 -12.85L7.8 -16.35Q7.45 -16.7 7.05 -16.35L3.85 -12.6Q3.5 -12.15 3.85 -11.75L6.75 -8.4L0.3 -1.5L-7.5 -9.95L-2 -14.95L-1 -15.75Q-0.6 -16.05 -1.05 -16.05L-4.45 -15.45L-6.4 -14.95Q-8.9 -14.2 -10.45 -13.15L-10.85 -13.55L-11.5 -13.65L-11.6 -13.55L-12.65 -12.3Q-13 -11.95 -12.7 -11.45L-12.4 -11.1Q-14 -8.25 -15.45 -1.05L-16.6 5.55Q-16.7 6.45 -16.45 5.6L-14 0.65L-11.5 -4.05L-9.45 -7.5L-2.25 1.3L-12.65 12.5Q-13 12.95 -12.65 13.35L-10.1 16.3Q-9.8 16.7 -9.4 16.3L0.3 4.4L10.05 16.3Q10.45 16.7 10.75 16.3L13.3 13.35Q13.65 12.95 13.3 12.5L2.9 1.3L8.85 -6L10.2 -4.45L11.05 -3.85L16.2 -1.7Q16.75 -1.5 16.55 -2.05L14.7 -8.05L14.15 -9.05L12.7 -10.7L13.35 -11.45Q13.65 -11.95 13.3 -12.3L12.25 -13.55Q11.9 -14 11.5 -13.55L10.85 -12.85M13.45 -14.95L14.5 -13.7Q15.6 -12.5 15 -10.85L15.35 -10.4L16.3 -8.7L18.15 -2.7Q18.5 -1.55 17.9 -0.65Q17.55 -0.05 16.95 0.15L15.65 0.1L10.45 -2Q9.6 -2.35 9 -3.1L8.9 -3.2L5.3 1.2L14.45 11.1Q15.15 11.8 15.15 12.9Q15.15 14.05 14.5 14.7L11.95 17.65Q11.35 18.4 10.4 18.4Q9.45 18.4 8.8 17.6L0.3 7.25L-8.15 17.6Q-8.75 18.35 -9.7 18.4Q-10.65 18.4 -11.3 17.65L-13.85 14.75Q-14.5 14.05 -14.5 12.9Q-14.5 11.8 -13.8 11.1L-4.65 1.2L-9.25 -4.45L-11.5 -0.35L-13.05 2.65L-14.95 6.55Q-15.5 7.75 -16.55 7.75L-17.35 7.75L-17.9 7.1Q-18.4 6.4 -18.25 5.25Q-16.8 -5.65 -14.4 -11Q-14.85 -12.6 -13.85 -13.7L-12.8 -14.95Q-12.3 -15.5 -11.6 -15.65L-11.5 -15.65L-10.3 -15.45L-8.5 -16.3Q-5.35 -17.6 -1.2 -18L-1 -18Q0.4 -18 0.8 -16.55Q1.05 -15.65 0.7 -14.95L0 -14.15L-4.95 -9.85L0.3 -4.15L4.3 -8.45L2.65 -10.4Q2 -11.05 2 -12.2Q2 -13.3 2.65 -14L5.9 -17.7L6.5 -18.15L7.45 -18.4Q8.35 -18.4 9 -17.7L10.95 -15.45L12.25 -15.65L13.45 -14.95"/>
<path style="fill:#FFFFFF;fill-opacity:1" d="M11.5 -13.55Q11.9 -14 12.25 -13.55L13.3 -12.3Q13.65 -11.95 13.35 -11.45L12.7 -10.7L14.15 -9.05L14.7 -8.05L16.55 -2.05Q16.75 -1.5 16.2 -1.7L11.05 -3.85L10.2 -4.45L8.85 -6L2.9 1.3L13.3 12.5Q13.65 12.95 13.3 13.35L10.75 16.3Q10.45 16.7 10.05 16.3L0.3 4.4L-9.4 16.3Q-9.8 16.7 -10.1 16.3L-12.65 13.35Q-13 12.95 -12.65 12.5L-2.25 1.3L-9.45 -7.5L-11.5 -4.05L-14 0.65L-16.45 5.6Q-16.7 6.45 -16.6 5.55L-15.45 -1.05Q-14 -8.25 -12.4 -11.1L-12.7 -11.45Q-13 -11.95 -12.65 -12.3L-11.6 -13.55L-11.5 -13.65L-10.85 -13.55L-10.45 -13.15Q-8.9 -14.2 -6.4 -14.95L-4.45 -15.45L-1.05 -16.05Q-0.6 -16.05 -1 -15.75L-2 -14.95L-7.5 -9.95L0.3 -1.5L6.75 -8.4L3.85 -11.75Q3.5 -12.15 3.85 -12.6L7.05 -16.35Q7.45 -16.7 7.8 -16.35L10.85 -12.85L11.5 -13.55"/>
</g>
</svg>
